X:1
T:When We Get Home
T:When We Get Home
T:William Oscar Perkins
T:Eden Reeder Latta, 1875
T:Public Domain Courtesy of the Cyber Hymnal™
T:Public Domain Courtesy of the Cyber Hymnal™
C:William Oscar Perkins
Z:Public Domain
Z:Courtesy of the Cyber Hymnal™
%%score ( 1 2 ) ( 3 4 )
L:1/8
Q:1/4=95
M:6/8
K:Ab
V:1 treble 
V:2 treble 
V:3 bass 
V:4 bass 
V:1
 [CE] | [CA]2 [CA] [CA][EG][DF] | [CE][DF][CE] [A,C]2 [CE]/[CE]/ | [CA][CA][CA] [=DA][DG][DA] | %4
w: 1.~When|we get home to that|beau- ti- ful land, With its|beau- ti- ful ci- ty of|
w: 2.~When|we get home from our|wan- der- ings here To that|clime where they wan- der no|
w: 3.~When|we get home, and it|will not be long, Till we|fin- ish our jour- ney be-|
 [EB]3- [EB]2 [DE] | [CA]2 [CA] [CA][EG][DF] | [CE][DF][CE] [A,C]2 E/E/ | %7
w: gold; * When|we have passed o’er the|riv- er of death, And are|
w: more; * When,|with the loved that have|passed in- to rest, We shall|
w: low; * When|we shall lose ev- ery|cum- ber- ing weight, And the|
 [EA][EA][EA] [EG][EA][EB] | [EA]3- [EA]2 z | [CE][CE][CE] [CE]2 [CE]/[CE]/ | %10
w: safe in the hea- ven- ly|fold; *|Wea- ri- some toil, trib- u-|
w: stand with our harps on the|shore; *|Sor- row and strife, and our|
w: sins that doth hin- der us|so; *|Tears that we shed in our|
 [DF][DF][DF] [DF]2 [DF] | [DG][DG][DG] [DG][DF][DG] | [CA]3- [CA]2 z | %13
w: la- tion and care, That|bur- den our spir- its to-|day, *|
w: prone- ness to err, The|pain and the sick- ness we|bear, *|
w: sor- row- ful hours, The|fears and the doubts that mo-|lest, *|
 [CE][CE][CE] [CE]2 [CE]/[CE]/ | [DF][DF][DF] [DF]2 [DF] | [DG][DG][DG] [DG][DF][DG] | %16
w: Like as a dream or a|sha- dow shall pass— Shall|pass, un- re- turn- ing, a-|
w: Like as a dream or a|sha- dow shall pass, And|ne’er shall they trou- ble us|
w: Like as a dream or a|sha- dow shall pass, And|reach not the home of the|
 [CA]3- [CA]2 ||"^Refrain" E | (z2 A G)[EA] x | B3- [EB]2 E | B3- (Bc)[Ed] | [Ec]3- [Ec]2 A | %22
w: way. *|When|* * we|get home, how|sweet * * ’twill|be! * *|
w: there. *||||||
w: blest. *||||||
 (z2 c B)[Ec] x | d3- (dc)[FB] | A3- (GA)[EB] | [EA]3- [EA]2 |] %26
w: * * When|we * * get|home, how * sweet|’twill *|
w: ||||
w: ||||
V:2
 x | x6 | x6 | x6 | x6 | x6 | x5 E/E/ | x6 | x6 | x6 | x6 | x6 | x6 | x6 | x6 | x6 | x5 || x | %18
 (A3- C E2) | (E2 E E) x2 | (E2 E E2) x | x6 | (c3- E E2) | (F2 F F2) x | (E2 E E2) x | x5 |] %26
V:3
 [A,,A,] | [A,,E,]2 [A,,E,] [A,,E,][A,,A,][A,,A,] | %2
w: ~|~ ~ ~ ~ ~|
 [A,,A,][A,,A,][A,,A,] [A,,E,]2 [A,,A,]/[A,,A,]/ | [F,A,][F,A,][F,A,] [F,A,][F,A,][F,A,] | %4
w: ~ ~ ~ ~ ~ ~|~ ~ ~ ~ ~ ~|
 [E,G,]3- [E,G,]2 [E,G,] | [A,,A,]2 [A,,E,] [A,,E,][A,,A,][A,,A,] | %6
w: ~ * ~|~ ~ ~ ~ ~|
 [A,,A,][A,,A,][A,,A,] [A,,A,]2 [C,A,]/[C,A,]/ | [E,C][E,C][E,C] [E,B,][E,C][E,D] | %8
w: ~ ~ ~ ~ ~ ~|~ ~ ~ ~ ~ ~|
 [A,,C]3- [A,,C]2 z | [A,,A,][A,,A,][A,,A,] [A,,A,]2 [A,,A,]/[A,,A,]/ | %10
w: ~ *|~ ~ ~ ~ ~ ~|
 [D,A,][D,A,][D,A,] [D,A,]2 [D,A,] | [B,,B,][B,,B,][B,,B,] [E,B,][E,B,][E,B,] | %12
w: ~ ~ ~ ~ ~|~ ~ ~ ~ ~ ~|
 [A,,A,]3- [A,,A,]2 z | [A,,A,][A,,A,][A,,A,] [A,,A,]2 [A,,A,]/[A,,A,]/ | %14
w: ~ *|~ ~ ~ ~ ~ ~|
 [D,A,][D,A,][D,A,] [D,A,]2 [D,A,] | [B,,B,][B,,B,][B,,B,] [E,B,][E,B,][E,B,] | %16
w: ~ ~ ~ ~ ~|~ ~ ~ ~ ~ ~|
 [A,,A,]3- [A,,A,]2 || z | z2 [A,,A,] E,2 [A,,A,] | [E,G,]2 [E,G,] [E,G,]2 [E,G,] | %20
w: ~ *||When we get|home, get home, How|
 [E,G,]2 [E,G,] (G,A,)[E,B,] | A,3- A,2 z | z2 [A,,A,] [A,,A,]2 [A,,A,] | %23
w: sweet, how sweet * ’twill|be! *|When we get|
 [D,A,]2 [D,A,] [D,A,]2 [D,A,] | [E,C]2 [E,C] (B,C)[E,D] | [A,,C]3- [A,,C]2 |] %26
w: home, get home, How|sweet, how sweet * ’twill|be! *|
V:4
 x | x6 | x6 | x6 | x6 | x6 | x6 | x6 | x6 | x6 | x6 | x6 | x6 | x6 | x6 | x6 | x5 || x | %18
 x3 (C,B,,) x | x6 | x3 E,2 x | A,3- A,2 x | x6 | x6 | x3 E,2 x | x5 |] %26

